X:1
T: HMS Victory
C:Bruce Shawyer
R:Reel
Q:232
K:G
M:4/4
L:1/16
|:D4|"G"G4D4G2A2 B2c2|d4d2c2B8|"Am"E4c2B2 A2G2F2G2|"D7"A4A2F2D4D4|
"G"G4D4G2A2 B2c2|d4d2c2B8|"Am"E4c2B2 "D7"A2G2 F2A2|"G"G4G4G4:|
|:B4|"G"g4g4g2d2 c2B2|"Am"e2c2 B2c2e8|"D7"d4a2f2 d2c2 B2c2|"G"d2c2 B2A2B8|
"G"B2d2 g2d2 "Am"c4c4|"D7"d2f2 a2f2 "G"g4g4|"Am"E2c2 e2d2 "D7"c2B2 A2F2|"G"G4G4G4:|
